src/assets/images/icons/vacation.svg

<?xml version="1.0" encoding="utf-8"?>
<svg width="32" height="31" viewBox="0 0 32 31" fill="none" xmlns="http://www.w3.org/2000/svg">
<path d="M8 5.76953H5C4.46957 5.76953 3.96086 5.98024 3.58579 6.35532C3.21071 6.73039 3 7.2391 3 7.76953V20.7695C3 21.3 3.21071 21.8087 3.58579 22.1837C3.96086 22.5588 4.46957 22.7695 5 22.7695H8V5.76953Z" fill="#1F3D56"/>
<path d="M29 24.7695H3C2.20435 24.7695 1.44129 25.0856 0.87868 25.6482C0.31607 26.2108 0 26.9739 0 27.7695C0 28.5652 0.31607 29.3282 0.87868 29.8909C1.44129 30.4535 2.20435 30.7695 3 30.7695H29C29.7956 30.7695 30.5587 30.4535 31.1213 29.8909C31.6839 29.3282 32 28.5652 32 27.7695C32 26.9739 31.6839 26.2108 31.1213 25.6482C30.5587 25.0856 29.7956 24.7695 29 24.7695Z" fill="#1F3D56"/>
<path d="M27 5.76953H24V22.7695H27C27.5304 22.7695 28.0391 22.5588 28.4142 22.1837C28.7893 21.8087 29 21.3 29 20.7695V7.76953C29 7.2391 28.7893 6.73039 28.4142 6.35532C28.0391 5.98024 27.5304 5.76953 27 5.76953Z" fill="#1F3D56"/>
<path d="M21 0.769531H11C10.7348 0.769531 10.4804 0.874888 10.2929 1.06242C10.1054 1.24996 10 1.50431 10 1.76953V22.7695H22V1.76953C22 1.50431 21.8946 1.24996 21.7071 1.06242C21.5196 0.874888 21.2652 0.769531 21 0.769531V0.769531ZM12 5.76953V2.76953H20V5.76953H12Z" fill="#1F3D56"/>
</svg>

<svg width="32" height="31" fill="none" xmlns="http://www.w3.org/2000/svg"><path d="M8 5.77H5a2 2 0 00-2 2v13a2 2 0 002 2h3v-17zM29 24.77H3a3 3 0 000 6h26a3 3 0 100-6zM27 5.77h-3v17h3a2 2 0 002-2v-13a2 2 0 00-2-2zM21 .77H11a1 1 0 00-1 1v21h12v-21a1 1 0 00-1-1zm-9 5v-3h8v3h-8z" fill="#1F3D56"/></svg>
